X:1
T:The Song and the Star
T:The Song and the Star
T:Charles Hutchinson Gabriel
T:Birdie Bell Winsett, 1915
T:Public Domain Courtesy of the Cyber Hymnal™
T:Public Domain Courtesy of the Cyber Hymnal™
C:Charles Hutchinson Gabriel
Z:Public Domain
Z:Courtesy of the Cyber Hymnal™
%%score ( 1 2 ) ( 3 4 )
L:1/8
Q:1/4=90
M:4/4
K:Bb
V:1 treble 
V:2 treble 
V:3 bass 
V:4 bass 
V:1
 [B,D][CE] | [DF][Fd][EA][Ec] [DB][DF][B,D][DF] | [DG]6 [B,D][CE] | %3
w: 1.~There’s a|hap- py song that’s ring- ing on the|air, ’Tis the|
w: 2.~There’s a|won- drous star that’s shin- ing o’er the|earth, ’Tis the|
w: 3.~O the|hap- py song is sound- ing far and|wide, And the|
 [DF][Fd][EA][Ec] [DB][DF][B,D][DF] | [EA]6 [EF][EG] | [EA][Ee][Ed][Ec] [EA]2 [EG][E_G] | %6
w: song that hearts are sing- ing ev- ery-|where; At the|mer- ry Christ- mas time Tune- ful|
w: star that tells the world of Je- sus’|birth; Ev- ery|seek- ing soul ’twill guide At the|
w: heav’n- ly star will ev- er be our|guide; And the|Christ who came in love, Bring- ing|
 [DF][Fd][Ec][DB] [DF]2 F[FG] | Ac=Bc dc_BG | c6 ||"^Refrain" [Fd][EA] | [Dc]2 [DB]4 cG | %11
w: bells the mes- sage chime, And its|ho- ly peace and glad- ness all may|share!|||
w: hap- py Christ- mas tide, When the|hearts of men are filled with ho- ly|mirth!|Hap- py|Christ- mas! Sweet- ly|
w: bless- ings from a- bove, In the|heart that’s pure and truth- ful will a-|bide!|||
 B2 A4 [Fe][F=B] | d2 c2 [EA]2 G2 [EF] | [Ff]6 [Fd][EA] | [Dc]2 [DB]4 [Dc][FB] | %15
w: ||||
w: e- cho, Star of|Christ- mas, bright- ly shine!|* Till the|world shall hear the|
w: ||||
 [FA]2 [EG]4 [^DA][CB] | [DF]2 [Fd]2 ([Fd] [Ec]2) [EF] | [DB]6 |] %18
w: |||
w: mes- sage, And shall|seek the Babe * di-|vine!|
w: |||
V:2
 x2 | x8 | x8 | x8 | x8 | x8 | x6 F x | F2 F2 =E2 E2 | (F=EFE _E2) || x2 | x8 | (EE) (EEEE) x2 | %12
 (FF) (EE) x E x3 | (DDDD D2) x2 | x8 | x8 | x8 | x6 |] %18
V:3
 [B,,F,][B,,F,] | [B,,B,]2 [B,,F,]2 F,B,F,B, | %2
w: ~ ~|~ ~ ~ ~ ~ ~|
 ([B,,B,][B,,B,][B,,B,][B,,B,] [B,,B,]2) [B,,F,][B,,F,] | [B,,B,]2 [B,,F,]2 F,B,F,B, | %4
w: ~ * * * * ~ ~|~ ~ ~ ~ ~ ~|
 ([C,F,][C,F,][C,F,][C,F,]) [F,C]2 [F,A,][F,B,] | [F,C][F,A,][F,A,][F,A,] [F,C]2 [F,A,][F,A,] | %6
w: ~ * * * ~ ~ ~|~ ~ ~ ~ ~ ~ ~|
 [B,,B,][B,,B,][B,,F,][B,,F,] [B,,B,]2 [B,,D][B,,D] | CA,[_D,^G,][C,A,] [C,B,]2 =G,B, | %8
w: ~ ~ ~ ~ ~ ~ ~|~ ~ ~ ~ ~ ~ ~|
 ([F,A,][G,B,][A,C][G,B,] [F,A,]2) || z2 | [B,,F,][B,,F,][B,,F,][B,,F,] [B,,F,][B,,F,] z2 | %11
w: ~ * * * *||Hap- py songs of Christ- mas|
 [C,F,][C,F,][C,F,][C,F,] [F,C][F,C][F,C][F,^G,] | [F,A,][F,A,][F,A,][F,A,] [F,C]2 [F,A,][F,A,] x | %13
w: Sweet- ly, sweet- ly e- cho, Star of|Christ- mas, bright- ly shine, Star of|
 [B,,B,][C,B,][D,B,][F,B,] B,2 z2 | [B,,F,][B,,F,][B,,F,][B,,F,] [B,,F,]2 [B,,F,][D,B,] | %15
w: Christ- mas, bright- ly shine!|Till the world shall hear, Till the|
 [D,B,][D,B,][D,B,][D,B,] [D,B,][D,B,][=E,G,][E,G,] | [F,B,]2 [F,B,]2 [F,A,]3 F, | [B,,F,]6 |] %18
w: world shall hear the mes- sage, * *|||
V:4
 x2 | x4 B,,2 B,,2 | x8 | x4 B,,2 B,,2 | x8 | x8 | x8 | C,2 x3 C,2 x | x6 || x2 | x8 | x8 | x9 | %13
 x4 B,2 x2 | x8 | x8 | x7 F, | x6 |] %18

